X:3221
L:1/8
M:6/8
K:Fdor
 c/c/ | F2 F =A2 A | B2 B c2 c | F2 F =AGA | B=AB c2 e | c>=Bc eee | c=Bc e2 e | fcc cBA | 
 B2 A GFE | FGA GAB | c=dc BAG | F3- F2 ||

